X:282
T:Col.Arch’d Campbell’s Quick Step. RH.282
R:quickstep
S:Rev.R.Harrison’s MS,c1815,Cumbria
O:England
A:Temple Sowerby,Cumbria
Z:vmp.Simon Wilson. Review PJH, 2008.
M:6/8
L:1/8
Q:3/8=110
K:D
A|d2e f2a|gec d2A|BdB cec|dAF D2A|d2e f2a|gec d2A|!
BdB cec|ded d2::f/d/|efe e2c|dfa g2c|efg faf|def ” DC”e2|]

